svg/fluentui-system-icons/ic_fluent_tag_lock_20_regular.svg

<svg width="20" height="20" viewBox="0 0 20 20" fill="none" xmlns="http://www.w3.org/2000/svg">
<path d="M14 7C14.5523 7 15 6.55228 15 6C15 5.44772 14.5523 5 14 5C13.4477 5 13 5.44772 13 6C13 6.55228 13.4477 7 14 7ZM11.1292 2.00004C10.5951 1.99654 10.0818 2.20681 9.7037 2.58399L3.02216 9.24852C2.23941 10.0293 2.2386 11.297 3.02036 12.0788L7.96875 17.0271C8.51829 17.5767 9.30805 17.7396 10 17.5158V16.4C9.60757 16.7084 9.03761 16.6818 8.67586 16.32L3.72746 11.3716C3.33659 10.9808 3.33699 10.3469 3.72837 9.95653L10.4099 3.29199C10.599 3.1034 10.8556 2.99827 11.1227 3.00002L16.013 3.03208C16.5622 3.03568 17.0057 3.48143 17.0065 4.03058L17.0138 8.98065C17.0142 9.24637 16.9088 9.50133 16.7209 9.68923L16.5759 9.83421C16.8196 10.0678 17.0239 10.3422 17.178 10.6464L17.428 10.3963C17.8038 10.0205 18.0146 9.51063 18.0138 8.97917L18.0065 4.02911C18.0049 2.93081 17.1179 2.0393 16.0196 2.0321L11.1292 2.00004ZM12.5 12V13H12C11.4477 13 11 13.4477 11 14V18C11 18.5523 11.4477 19 12 19H17C17.5523 19 18 18.5523 18 18V14C18 13.4477 17.5523 13 17 13H16.5V12C16.5 10.8954 15.6046 10 14.5 10C13.3954 10 12.5 10.8954 12.5 12ZM13.5 13V12C13.5 11.4477 13.9477 11 14.5 11C15.0523 11 15.5 11.4477 15.5 12V13H13.5ZM14.5 15.25C14.9142 15.25 15.25 15.5858 15.25 16C15.25 16.4142 14.9142 16.75 14.5 16.75C14.0858 16.75 13.75 16.4142 13.75 16C13.75 15.5858 14.0858 15.25 14.5 15.25Z" fill="#212121"/>
</svg>

<svg xmlns="http://www.w3.org/2000/svg" width="20" height="20"><path d="M14 7a1 1 0 1 0 0-2 1 1 0 0 0 0 2Zm-2.87-5a2 2 0 0 0-1.426.584L3.022 9.249a2 2 0 0 0-.002 2.83l4.949 4.948a2 2 0 0 0 2.031.489V16.4a1 1 0 0 1-1.324-.08l-4.949-4.948a1 1 0 0 1 .001-1.415l6.682-6.665A1 1 0 0 1 11.123 3l4.89.032a1 1 0 0 1 .993.999l.008 4.95a1 1 0 0 1-.293.708l-.145.145c.244.234.448.508.602.812l.25-.25a2 2 0 0 0 .586-1.417l-.008-4.95a2 2 0 0 0-1.986-1.997L11.13 2Zm1.37 10v1H12a1 1 0 0 0-1 1v4a1 1 0 0 0 1 1h5a1 1 0 0 0 1-1v-4a1 1 0 0 0-1-1h-.5v-1a2 2 0 1 0-4 0Zm1 1v-1a1 1 0 1 1 2 0v1h-2Zm1 2.25a.75.75 0 1 1 0 1.5.75.75 0 0 1 0-1.5Z"/></svg>
